X: 28916
T: Na Cruacha Gorma
R: hornpipe
M: 4/4
K: Gmajor
(3DEF|G2 (3BAG FA (3DEF|GB (3def gedB|
AE (3E^DE cABG|(3ABA (3GFE D2 (3DEF|
G2 (3BAG FA (3DEF|GB (3def gedB|
(3A^GA fe cFAF|(3ABA EF G2||
Bd|e2 (3fed edBd|e2 (3fed B2 (3AB^c|
d2 (3edc dAFG|(3AGF GE D2 (3DEF|
G2 (3BAG FA (3DEF|GB (3def gedB|
(3A^GA fe cFAF|(3ABA EF G2||

